images/skills/2-skills-ux-md1.svg

<?xml version="1.0" encoding="UTF-8" standalone="no"?>
<svg width="211px" height="163px" viewBox="0 0 211 163" version="1.1" xmlns="http://www.w3.org/2000/svg" xmlns:xlink="http://www.w3.org/1999/xlink" xmlns:sketch="http://www.bohemiancoding.com/sketch/ns">
    <!-- Generator: Sketch 3.2.2 (9983) - http://www.bohemiancoding.com/sketch -->
    <title>ux</title>
    <desc>Created with Sketch.</desc>
    <defs></defs>
    <g id="Medium" stroke="none" stroke-width="1" fill="none" fill-rule="evenodd" sketch:type="MSPage">
        <g id="Group" sketch:type="MSLayerGroup" fill="#FFFFFF">
            <g id="ux" sketch:type="MSShapeGroup">
                <path d="M129.999612,102.801342 C129.824281,103.678031 129.12145,104.204145 128.243288,104.204145 C127.365126,104.204145 126.662798,103.678031 126.486964,102.801342 C125.081805,97.3656677 121.920321,94.2094862 117.880676,94.2094862 C113.665198,94.2094862 109.450221,97.7162431 109.450221,103.678031 C109.450221,111.393197 122.096155,122.61512 128.243288,127.349142 C134.390421,122.61512 147.036355,111.393197 147.036355,103.678031 C147.036355,97.7162431 142.821379,94.2094862 138.6059,94.2094862 C134.566255,94.2094862 131.404771,97.3656677 129.999612,102.801342" id="Fill-1"></path>
                <path d="M64.3047619,51.0751723 L64.3047619,56.6738462 L135.642857,56.6738462 L135.642857,51.0751723 C135.642857,48.0945292 133.161095,45.64 130.175445,45.64 L70.1072619,45.64 C67.1216119,45.64 64.3047619,48.0945292 64.3047619,51.0751723 L64.3047619,51.0751723 Z M88.900831,49.3217938 C89.9543238,49.3217938 90.8324857,50.0229446 90.8324857,51.0751723 C90.8324857,52.1274 89.9543238,53.0040892 88.900831,53.0040892 C87.8468357,53.0040892 86.9686738,52.1274 86.9686738,51.0751723 C86.9686738,50.0229446 87.8468357,49.3217938 88.900831,49.3217938 L88.900831,49.3217938 Z M81.3480357,49.3217938 C82.402031,49.3217938 83.2801929,50.0229446 83.2801929,51.0751723 C83.2801929,52.1274 82.402031,53.0040892 81.3480357,53.0040892 C80.2945429,53.0040892 79.5917119,52.1274 79.5917119,51.0751723 C79.5917119,50.0229446 80.2945429,49.3217938 81.3480357,49.3217938 L81.3480357,49.3217938 Z M73.9715762,49.3217938 C75.025069,49.3217938 75.7279,50.0229446 75.7279,51.0751723 C75.7279,52.1274 75.025069,53.0040892 73.9715762,53.0040892 C72.917581,53.0040892 72.039419,52.1274 72.039419,51.0751723 C72.039419,50.0229446 72.917581,49.3217938 73.9715762,49.3217938 L73.9715762,49.3217938 Z" id="Fill-2"></path>
                <path d="M102.988095,155.112806 C102.988095,154.215554 103.468371,153.387012 104.247062,152.939138 L166.790476,117.00792 L166.790476,46.3010277 L104.247062,10.3698092 C103.468371,9.92193538 102.988095,9.09339385 102.988095,8.19614154 L102.988095,0 L0,0 L0,163 L102.988095,163 L102.988095,155.112806 L102.988095,155.112806 Z M150.724836,103.678031 C150.724836,115.601105 130.175445,130.505323 129.297283,131.206474 C128.945617,131.382012 128.594452,131.557551 128.243288,131.557551 C127.892124,131.557551 127.54096,131.382012 127.189293,131.206474 C126.311131,130.505323 105.76174,115.601105 105.76174,103.678031 C105.76174,95.4367508 111.908874,90.3521538 117.880676,90.3521538 C121.393324,90.3521538 125.608802,92.2805692 128.243288,97.0150923 C130.877774,92.2805692 135.093252,90.3521538 138.6059,90.3521538 C144.577702,90.3521538 150.724836,95.4367508 150.724836,103.678031 L150.724836,103.678031 Z M130.175445,41.6276923 C135.268583,41.6276923 139.661905,45.9900738 139.661905,51.0751723 L139.661905,81.0586462 C139.661905,82.1108738 138.61846,82.9875631 137.564464,82.9875631 C136.510971,82.9875631 135.642857,82.1108738 135.642857,81.0586462 L135.642857,60.6861538 L64.3047619,60.6861538 L64.3047619,95.9628646 C64.3047619,99.1190462 67.1216119,101.812308 70.1072619,101.812308 L96.4531238,101.812308 C97.5066167,101.812308 98.2094476,102.515465 98.2094476,103.567692 C98.2094476,104.61992 97.5066167,105.323077 96.4531238,105.323077 L70.1072619,105.323077 C65.1613214,105.323077 61.2904762,101.463738 60.7880952,96.4172585 L60.7880952,50.6353231 C61.2904762,45.7498369 65.1613214,41.6276923 70.1072619,41.6276923 L130.175445,41.6276923 L130.175445,41.6276923 Z M97.087631,152.651757 C96.6962762,152.651757 96.3014048,152.555462 95.9326571,152.363874 L89.9578405,148.930843 L40.4476952,120.421892 C39.6705119,119.97452 39.1857143,119.145978 39.1857143,118.249729 L39.1857143,44.7633108 C39.1857143,43.8670615 39.6705119,43.0390215 40.4476952,42.5911477 L95.3182452,10.9932215 C96.5209452,10.3000954 98.0572262,10.7128615 98.7505119,11.91204 C99.4432952,13.1112185 99.0268214,14.6434185 97.8271357,15.3360431 L44.2095238,46.2117538 L44.2095238,116.867991 L92.3079786,144.497243 L98.343081,147.9714 C99.5442738,148.663523 99.9577333,150.196726 99.2644476,151.396406 C98.7997452,152.201877 97.9562476,152.651757 97.087631,152.651757 L97.087631,152.651757 Z" id="Fill-3"></path>
                <path d="M108.011905,0 L108.011905,6.74569231 L170.555319,42.6769108 C171.33401,43.1247846 171.814286,43.9533262 171.814286,44.8505785 L171.814286,118.458369 C171.814286,119.355622 171.33401,120.184163 170.555319,120.632037 L108.011905,156.563255 L108.011905,163 L211,163 L211,0 L108.011905,0" id="Fill-4"></path>
            </g>
        </g>
    </g>
</svg>

<svg width="211" height="163" viewBox="0 0 211 163" xmlns="http://www.w3.org/2000/svg"><title>ux</title><desc>Created with Sketch.</desc><g fill="#fff"><path d="M130 102.8c-.176.878-.88 1.404-1.757 1.404-.878 0-1.58-.526-1.756-1.403-1.405-5.434-4.567-8.59-8.606-8.59-4.215 0-8.43 3.506-8.43 9.468 0 7.715 12.646 18.937 18.793 23.67 6.147-4.733 18.793-15.955 18.793-23.67 0-5.962-4.215-9.47-8.43-9.47-4.04 0-7.2 3.158-8.606 8.593"/><path d="M64.305 51.075v5.6h71.338v-5.6c0-2.98-2.482-5.435-5.468-5.435H70.107c-2.985 0-5.802 2.455-5.802 5.435zM88.9 49.322c1.054 0 1.932.7 1.932 1.753 0 1.052-.878 1.93-1.93 1.93-1.055 0-1.933-.878-1.933-1.93s.877-1.753 1.93-1.753zm-7.552 0c1.054 0 1.932.7 1.932 1.753 0 1.052-.878 1.93-1.932 1.93-1.053 0-1.756-.878-1.756-1.93s.703-1.753 1.756-1.753zm-7.376 0c1.053 0 1.756.7 1.756 1.753 0 1.052-.703 1.93-1.756 1.93-1.054 0-1.933-.878-1.933-1.93s.878-1.753 1.932-1.753z"/><path d="M102.988 155.113c0-.897.48-1.726 1.26-2.174l62.542-35.932V46.3l-62.543-35.93c-.78-.448-1.26-1.277-1.26-2.174V0H0v163h102.988v-7.887zm47.737-51.435c0 11.923-20.55 26.827-21.428 27.528-.35.176-.703.352-1.054.352-.35 0-.702-.176-1.054-.352-.88-.7-21.428-15.605-21.428-27.528 0-8.24 6.147-13.326 12.12-13.326 3.51 0 7.727 1.93 10.36 6.663 2.636-4.734 6.85-6.663 10.364-6.663 5.972 0 12.12 5.085 12.12 13.326zm-20.55-62.05c5.094 0 9.487 4.362 9.487 9.447V81.06c0 1.05-1.044 1.928-2.098 1.928-1.053 0-1.92-.877-1.92-1.93V60.687h-71.34v35.277c0 3.156 2.818 5.85 5.803 5.85h26.346c1.054 0 1.756.702 1.756 1.755 0 1.052-.703 1.755-1.757 1.755H70.107c-4.946 0-8.817-3.86-9.32-8.906V50.635c.503-4.885 4.374-9.007 9.32-9.007h60.068zM97.088 152.652c-.392 0-.787-.097-1.155-.288l-5.975-3.433-49.51-28.508c-.777-.447-1.262-1.276-1.262-2.172V44.763c0-.896.485-1.724 1.262-2.172l54.87-31.597c1.203-.693 2.74-.28 3.433.92.693 1.198.277 2.73-.923 3.423L44.21 46.212v70.656l48.098 27.63 6.035 3.473c1.2.694 1.615 2.227.92 3.426-.463.806-1.307 1.256-2.175 1.256z"/><path d="M108.012 0v6.746l62.543 35.93c.78.45 1.26 1.277 1.26 2.175v73.608c0 .898-.48 1.726-1.26 2.174l-62.543 35.93V163H211V0H108.012"/></g></svg>
